icons/outpatient_fill.svg

<svg width="48" height="48" viewBox="0 0 48 48" fill="none" xmlns="http://www.w3.org/2000/svg">
<path d="M21.9348 10.7234C21.5943 12.5872 19.9621 14 18 14C15.7909 14 14 12.2091 14 10C14 9.73628 14.0255 9.47852 14.0742 9.22906C15.6003 10.1551 16.9291 10.6771 18.314 10.8666C19.4897 11.0276 20.6533 10.9406 21.9348 10.7234Z" fill="black"/>
<path d="M14.9456 7.41715C15.6793 6.55032 16.7754 6 18 6C19.7608 6 21.2559 7.13777 21.7902 8.71824C20.5293 8.94283 19.5397 9.01578 18.5852 8.88512C17.5055 8.73733 16.3934 8.31698 14.9456 7.41715Z" fill="black"/>
<path d="M14.5 15C11.7643 15 9.59795 16.6697 8.20889 18.6908C6.81023 20.7259 6 23.3668 6 25.9716C6 27.363 6.64476 28.9774 7.10071 29.9916C7.35359 30.554 7.60461 31.0501 7.7919 31.405C7.87449 31.5615 7.94554 31.6921 8 31.7907V40C8 41.1046 8.89543 42 10 42C11.1046 42 12 41.1046 12 40V28.5439C12.2924 26.1359 12.9784 23.954 13.7632 22.1696L14.42 24.7265C14.6472 25.6106 15.4442 26.2288 16.3571 26.2288H21.5C22.6046 26.2288 23.5 25.3334 23.5 24.2288C23.5 23.1242 22.6046 22.2288 21.5 22.2288H17.9083L16.4371 16.5023C16.2099 15.6182 15.4129 15 14.5 15Z" fill="black"/>
<path d="M37 18C39.2091 18 41 16.2091 41 14C41 11.7909 39.2091 10 37 10C34.7909 10 33 11.7909 33 14C33 16.2091 34.7909 18 37 18Z" fill="black"/>
<path fill-rule="evenodd" clip-rule="evenodd" d="M31.2217 18.0448C32.1441 17.8462 33.0798 18.3191 33.4668 19.1796L36.1148 25.0667H40C41.1046 25.0667 42 25.9621 42 27.0667C42 28.1712 41.1046 29.0667 40 29.0667H34.8214C34.0343 29.0667 33.3203 28.605 32.9974 27.8871L31.5634 24.6988C31.1058 25.5415 30.8045 26.3165 30.6142 27.121C30.4146 27.9646 30.3262 28.8857 30.3418 30.0076C30.6654 30.1432 31.0233 30.278 31.4063 30.41C32.2896 30.7144 33.1994 30.968 33.9421 31.1672C34.0674 31.2009 34.1922 31.234 34.3122 31.266L34.3134 31.2663C34.5332 31.3247 34.7373 31.379 34.8998 31.424C35.0276 31.4594 35.1602 31.4974 35.2773 31.5351L35.2859 31.5378C35.3472 31.5571 35.6139 31.641 35.8613 31.7916C36.183 31.9874 36.4074 32.2549 36.453 32.3093L36.4588 32.3162C36.5523 32.4257 36.6455 32.5469 36.7299 32.6606C36.9017 32.8923 37.1055 33.1866 37.3204 33.5061C37.7536 34.15 38.2833 34.9727 38.7914 35.7738C39.3013 36.5778 39.7972 37.3725 40.1652 37.9653C40.3493 38.2619 40.5017 38.5086 40.6082 38.6812L40.7757 38.9534L39.0714 40C40.776 38.9538 40.7757 38.9534 40.7757 38.9534C41.3535 39.8948 41.059 41.1268 40.1176 41.7046C39.1762 42.2823 37.9447 41.9876 37.3669 41.0462L37.2036 40.7809C37.0988 40.611 36.9484 40.3676 36.7666 40.0747C36.4026 39.4883 35.914 38.7054 35.4134 37.9161C34.911 37.1238 34.4042 36.3373 34.0015 35.7388C33.8671 35.5389 33.7497 35.3682 33.6516 35.2297C33.5511 35.2026 33.4402 35.1731 33.3169 35.1403C33.193 35.1074 33.0566 35.0711 32.9056 35.0306C32.1428 34.8259 31.1232 34.5432 30.1032 34.1918L30 34.156V42H28V35H17V42H15V32H26.0334C25.9443 31.9098 25.8581 31.815 25.7761 31.7156C25.3792 31.2344 25 30.5401 25 29.6667C25 24.9641 26.268 22.0449 27.8129 20.2701C28.573 19.397 29.3563 18.8533 29.9857 18.522C30.299 18.357 30.5726 18.2454 30.7848 18.1714C30.891 18.1344 30.9822 18.1066 31.0557 18.0862C31.0925 18.076 31.125 18.0676 31.1527 18.0608C31.1666 18.0574 31.1793 18.0544 31.1908 18.0517L31.2072 18.048L31.2147 18.0464L31.2183 18.0456C31.2183 18.0456 31.2217 18.0448 31.6429 20L31.2217 18.0448ZM34.0893 35.3557C34.0893 35.3557 34.076 35.3517 34.0551 35.3437C34.0798 35.3517 34.0893 35.3557 34.0893 35.3557ZM33.4264 34.9252C33.393 34.8899 33.388 34.8797 33.4166 34.9132L33.4264 34.9252Z" fill="black"/>
<path d="M23.5 12C24.3284 12 25 10.8807 25 9.5C25 8.11929 24.3284 7 23.5 7C22.6716 7 22 8.11929 22 9.5C22 10.8807 22.6716 12 23.5 12Z" fill="black"/>
</svg>

<svg
  xmlns="http://www.w3.org/2000/svg"
  width="24"
  height="24"
  viewBox="0 0 24 24"
  fill="none"
  stroke="currentColor"
  stroke-width="2"
  stroke-linecap="round"
  stroke-linejoin="round"
>
  <path d="M21.935 10.723a4.001 4.001 0 1 1-7.86-1.494c1.525.926 2.854 1.448 4.239 1.638 1.176.16 2.34.074 3.62-.144" />
  <path d="M14.946 7.417a4.002 4.002 0 0 1 6.845 1.301c-1.262.225-2.251.298-3.206.167-1.08-.148-2.192-.568-3.64-1.468" />
  <path d="M14.5 15c-2.736 0-4.902 1.67-6.291 3.69C6.81 20.727 6 23.368 6 25.973c0 1.391.645 3.005 1.1 4.02A25 25 0 0 0 8 31.79V40a2 2 0 1 0 4 0V28.544c.292-2.408.978-4.59 1.763-6.374l.657 2.557a2 2 0 0 0 1.937 1.502H21.5a2 2 0 1 0 0-4h-3.592l-1.47-5.727A2 2 0 0 0 14.5 15" />
  <path d="M37 18a4 4 0 1 0 0-8 4 4 0 0 0 0 8" />
  <path
    fill-rule="evenodd"
    d="M31.222 18.045a2 2 0 0 1 2.245 1.135l2.648 5.887H40a2 2 0 1 1 0 4h-5.179a2 2 0 0 1-1.824-1.18L31.563 24.7c-.457.842-.758 1.617-.949 2.422-.2.844-.288 1.765-.272 2.887.323.135.681.27 1.064.402.884.304 1.793.558 2.536.757l.37.099h.001l.587.158c.128.035.26.073.377.111l.009.003c.061.02.328.103.575.254.322.195.546.463.592.517l.006.007c.093.11.186.23.27.345.173.231.377.526.591.845.434.644.963 1.467 1.471 2.268a275 275 0 0 1 1.817 2.907l.168.272L39.07 40l1.705-1.047a2 2 0 0 1-3.41 2.093l-.162-.265a300 300 0 0 0-1.79-2.865c-.503-.792-1.01-1.579-1.413-2.177q-.201-.3-.35-.51l-.334-.089-.411-.11a43 43 0 0 1-2.803-.838L30 34.156V42h-2v-7H17v7h-2V32h11.033a4 4 0 0 1-.257-.284c-.397-.482-.776-1.176-.776-2.05 0-4.702 1.268-7.621 2.813-9.396a7.6 7.6 0 0 1 2.173-1.748c.313-.165.587-.277.799-.35a4 4 0 0 1 .406-.12l.016-.004.008-.002h.003s.004-.001.425 1.954zm2.867 17.31q-.001 0-.034-.011zm-.663-.43-.01-.012z"
    clip-rule="evenodd"
  />
  <path d="M23.5 12c.828 0 1.5-1.12 1.5-2.5S24.328 7 23.5 7 22 8.12 22 9.5s.672 2.5 1.5 2.5" />
</svg>
